!!!COM: Mozart, Wolfgang Amadeus
!!!OTL: Musikalische Würfelspiele, Kontre-Tänze
!!!SCA: K<sup>6</sup> Anh. C30.01 (K<sup>3</sup> Anh. 294d)
**kern	**kern
*staff2	*staff2
*clefF4	*clefG2
*M2/4	*M2/4
*MM110	*MM110
*>[A,A1,A,A2,B]	*>[A,A1,A,A2,B]
*>norep[A,A2,B]	*>norep[A,A2,B]
*>A	*>A
=10	=10
4C	8gg
.	8ee
4r	8cc
.	8cc
=114	=114
4C	8gg
.	16aa
.	16gg
4r	16ff
.	16ee
.	16dd
.	16cc
=40	=40
8G	16ff
.	16ee
8GG	16dd
.	16cc
8GG	16b
.	16cc
8GG	16dd
.	16b
=71	=71
16C	8e 8cc
16CC	.
16EE	8e 8cc
16GG	.
16C	4e 4cc
16E	.
16G	.
16E	.
=147	=147
4D	16dd
.	16ee
.	16ff#
.	16gg
4F#	16aa
.	16ff#
.	16ee
.	16dd
=52	=52
16BB	8gg
16GG	.
16BB	8bb
16D	.
16G	8gg
16D	.
16BB	8dd
16GG	.
=23	=23
4C	16ee
.	16cc
.	16ee
.	16cc
4D	8a
.	8ff#
=130	=130
*>A1	*>A1
4GG	4g 4b 4gg
16G	4r
16F	.
16E	.
16D	.
=130:|!	=130:|!
*>A2	*>A2
4GG	4g 4b 4gg
16GG	4r
16AA	.
16BB	.
16C#	.
=136||	=136||
*>B	*>B
4D	8dd
.	16ff#
.	16aa
4F#	8ddd
.	8ddd
=157	=157
4G	16gg
.	16aa
.	16bb
.	16ccc
4GG	4ddd
=87	=87
4C	8ee
.	16cc
.	16ee
4r	8gg
.	16ee
.	16cc
=173	=173
4GG	16b
.	16g
.	16d
.	16B
4r	16G
.	16g
.	16b
.	16dd
=94	=94
16C	8cc
16E	.
16G	8ee
16E	.
16C	8gg
16E	.
16G	8ee
16E	.
=80	=80
4C	8cc
.	8ee
4r	8ee
.	8ee
=60	=60
8G	8ff
16GG	8ff
16AA	.
16BB	8dd
16C	.
16D	8dd
16BB	.
=20	=20
4C	4cc
4CC	4c
==	==
*-	*-
